src/assets/img/shape-squiggle.svg

<svg fill="none" height="264" viewBox="0 0 256 264" width="256" xmlns="http://www.w3.org/2000/svg"><path d="m247.795 263.031c-1.814-.007-3.577-.585-5.027-1.646-17.849-12.791-15.081-33.54-12.596-51.93 2.486-18.389 3.333-29.972-5.648-36.504s-20.335-2.306-37.619 5.489-36.884 16.468-54.79 3.678c-17.905-12.79-15.025-33.54-12.596-51.929s3.333-29.917-5.648-36.5044c-8.981-6.5872-20.3348-2.3055-37.619 5.4894-17.2843 7.795-36.8844 16.468-54.79 3.733-17.90561-12.7356-15.36381-33.6501-12.93498-51.9845 2.42888-18.3345 3.33258-29.972-5.64845-36.5043-1.58309-1.3525-2.590562-3.23-2.8256765-5.26569-.2351155-2.0357.3190155-4.08348 1.5541765-5.74342 1.23516-1.65995 3.06265-2.812846 5.12557-3.233551 2.06292-.420704 4.21316-.0790014 6.03076.958381 17.8491 12.79018 15.0813 33.59488 12.596 51.92938s-3.3326 29.9719 5.6485 36.5043c8.981 6.5323 20.3344 2.3604 37.6187-5.4894 17.2842-7.8498 36.8844-16.4681 54.7904-3.7327 17.905 12.7353 15.081 33.5395 12.596 51.8745-2.486 18.334-3.333 29.972 5.648 36.559s20.334 2.306 37.675-5.489 36.885-16.468 54.734-3.733 15.081 33.595 12.652 51.929c-2.429 18.335-3.332 29.972 5.649 36.56 1.461.989 2.564 2.4 3.153 4.033.588 1.634.633 3.406.126 5.065-.506 1.659-1.538 3.121-2.948 4.177-1.41 1.057-3.127 1.656-4.907 1.71z" fill="#adf7b6"/></svg>

<svg width="256" height="264" viewBox="0 0 256 264" fill="none" xmlns="http://www.w3.org/2000/svg">
<path d="M247.795 263.031C245.981 263.024 244.218 262.446 242.768 261.385C224.919 248.594 227.687 227.845 230.172 209.455C232.658 191.066 233.505 179.483 224.524 172.951C215.543 166.419 204.189 170.645 186.905 178.44C169.621 186.235 150.021 194.908 132.115 182.118C114.21 169.328 117.09 148.578 119.519 130.189C121.948 111.8 122.852 100.272 113.871 93.6846C104.89 87.0974 93.5362 91.3791 76.252 99.174C58.9677 106.969 39.3676 115.642 21.462 102.907C3.55639 90.1714 6.09819 69.2569 8.52702 50.9225C10.9559 32.588 11.8596 20.9505 2.87857 14.4182C1.29548 13.0657 0.288008 11.1882 0.0528935 9.15251C-0.182222 7.11681 0.371909 5.06903 1.60707 3.40909C2.84223 1.74914 4.66972 0.596244 6.73264 0.175539C8.79556 -0.245165 10.9458 0.0965376 12.7634 1.13392C30.6125 13.9241 27.8447 34.7288 25.3594 53.0633C22.8741 71.3978 22.0268 83.0352 31.0079 89.5676C39.9889 96.0999 51.3423 91.928 68.6266 84.0782C85.9108 76.2284 105.511 67.6101 123.417 80.3455C141.322 93.0808 138.498 113.885 136.013 132.22C133.527 150.554 132.68 162.192 141.661 168.779C150.642 175.366 161.995 171.085 179.336 163.29C196.677 155.495 216.221 146.822 234.07 159.557C251.919 172.292 249.151 193.152 246.722 211.486C244.293 229.821 243.39 241.458 252.371 248.046C253.832 249.035 254.935 250.446 255.524 252.079C256.112 253.713 256.157 255.485 255.65 257.144C255.144 258.803 254.112 260.265 252.702 261.321C251.292 262.378 249.575 262.977 247.795 263.031Z" fill="#ADF7B6"/>
</svg>
